!!!COM: Bach, Johann Sebastian
!!!CDT: 1685/02/21/-1750/07/28/
!!!OTL@@DE:	Es ist das Heil uns kommen her
!!!SCT: BWV 86/6
!!!PC#:	4
!!!AGN: chorale
**harm	**kern	**kern	**kern	**kern
*.	*ICvox	*ICvox	*ICvox	*ICvox
*.	*Ibass	*Itenor	*Ialto	*Isoprn
*.	*I"Bass	*I"Tenor	*I"Alto	*I"Soprano
*>[A,A,B]	*>[A,A,B]	*>[A,A,B]	*>[A,A,B]	*>[A,A,B]
*>norep [A,B]	*>norep[A,B]	*>norep[A,B]	*>norep[A,B]	*>norep[A,B]
*A>	*>A	*>A	*>A	*>A
*.	*	*oclefC4	*oclefC3	*oclefC1
*.	*clefF4	*clefGv2	*clefG2	*clefG2
*k[f#c#g#d#]	*k[f#c#g#d#]	*k[f#c#g#d#]	*k[f#c#g#d#]	*k[f#c#g#d#]
*E:	*E:	*E:	*E:	*E:
*M4/4	*M4/4	*M4/4	*M4/4	*M4/4
*met(c)	*met(c)	*met(c)	*met(c)	*met(c)
*MM100	*MM100	*MM100	*MM100	*MM100
I	4E	4e	4g#	4b
=1	=1	=1	=1	=1
V6	4D#	4f#	4f#	4b
V7	4BB	4d#	4a	4b
I	4E	4e	4g#	4b
A:IV6	8F#L	8AL	8f#L	8ddL
vii%7	8G#J	8BJ	8f#J	8ddJ
=2	=2	=2	=2	=2
I	4A	4c#	4e	4cc#
V7	4E	4d	4g#	4b
I;	4AA;	4c#;	4e;	4a;
E:V6	4D#	4B	4f#	4b
=3	=3	=3	=3	=3
I	4E	4B	4e	4g#
I6	4G#	4B	4e	4e
vi	4C#	4G#	4e	4g#
B:V	8F#L	8F#L	8c#L	8a#L
V2	8EJ	8F#J	8c#J	8a#J
=4	=4	=4	=4	=4
I6	8D#L	8F#L	8f#L	8bL
I	8BBJ	8BJ	8d#J	8bJ
V7	4F#	4A#	4e	4cc#
I;	4BB;	4F#;	4d#;	4b;
*>B	*>B	*>B	*>B	*>B
IV	4E	4G#	4e	4b
=5	=5	=5	=5	=5
ii	8C#L	8c#L	8g#L	8eeL
viio6	8C#J	8c#J	8a#J	8eeJ
I6	4D#	4F#	4b	4dd#
V	4F#	4f#	4a#	4cc#
I	4B	4f#	4b	4dd#
=6	=6	=6	=6	=6
IV6	8G#L	8BL	8bL	8eeL
IV	8EJ	8BJ	8bJ	8eeJ
V	4F#	4A#	4f#	4cc#
I;	4BB;	4d#;	4f#;	4b;
E:I	4E	4e	4g#	4b
=7	=7	=7	=7	=7
I6	4G#	4B	4e	4ee
I	4E	4e	4g#	4b
IV	4A	4e	4a	4cc#
vi	4c#	4c#	4e	4g#
=8	=8	=8	=8	=8
f#:viio7	4E#	4d	4g#	4b
i	4F#	4c#	4f#	4a
V;	4C#;	4c#;	4e#;	4g#;
E:I	4E	4B	4e	4g#
=9	=9	=9	=9	=9
V	4BB	4B	4d#	4f#
IV6	4C#	4e	4c#	4a
I	4E	4e	4B	4g#
V	4BB	4d#	4B	4f#
=10	=10	=10	=10	=10
V6/V	4AA#	4F#	4c#	4c#
V	4BB	4F#	4B	4d#
I;	4EE;	4G#;	4B;	4e;
==	==	==	==	==
*-	*-	*-	*-	*-
!!!YOR1: 371 vierstimmige Choralges&auml;nge von Johann Sebastian Bach, 
!!!YOR2: 4th ed. by Alfred D&ouml;rffel (Leipzig: Breitkopf und H&auml;rtel, 
!!!YOR2: c.1875). 178 pp. Plate "V.A.10".  reprint: J.S. Bach, 371 Four-Part 
!!!YOR4: Chorales (New York: Associated Music Publishers, Inc., c.1940).
!!!SMS: B&H, 4th ed, Alfred D&ouml;rffel, c.1875, plate V.A.10
!!!EED:  Craig Stuart Sapp
!!!EEV:  2009/05/22
